**kern	**kern
*part1	*part1
*staff2	*staff1
*I"Piano	*
*clefF4	*clefG2
*k[f#c#g#]	*k[f#c#g#]
=1	=1
2FFF# 2FF#	2.A 2.c# 2.f#
4FFF#	.
=	=
2FFF#	4r
.	4r
*^	*
(((4E#X 4G#	4FFF#	4B 4d
=	=	=
2.F#))) 2.A	2FFF#	2.c#
.	4FFF#	.
=	=	=
4r	2FFF#	2.r
4r	.	.
((4D 4E#X 4G# 4B	4FFF#	.
=	=	=
2.C#)) 2.F# 2.A	2FFF#	2.r
.	4FFF#	.
=	=	=
4r	2FFF#	2.r
4r	.	.
((4BB 4D 4E#X 4G#	4FFF#	.
=	=	=
2AA)) 2C# 2F#	2FFF#	2.r
4AA 4C# 4F#	4FF#	.
=	=	=
(2AA' 2C# 2F#	2CC# 2FF#	2.r
4AA') 4C# 4F#	4AAA 4FF#	.
=	=	=
2.AA; 2.C# 2.F#	2.FFF#; 2.FF#	2.r
*v	*v	*
=:|!	=:|!
*-	*-
!!!system-decoration: {(s1,s2)}
